Newaita-dark/actions/32/media-album-cover-manager-amarok.svg

<svg height="32" viewBox="0 0 32 32" width="32" xmlns="http://www.w3.org/2000/svg"><g fill="#e0e0e0"><path d="m15.875 5.542969c-5.863281 0-10.582031 4.71875-10.582031 10.582031 0 5.867188 4.71875 10.585938 10.582031 10.585938 5.867188 0 10.585938-4.71875 10.585938-10.585938 0-5.863281-4.71875-10.582031-10.585938-10.582031zm0 1.324219c5.132812 0 9.261719 4.128906 9.261719 9.257812 0 5.132812-4.128907 9.261719-9.261719 9.261719-5.128906 0-9.261719-4.128907-9.261719-9.261719 0-5.128906 4.132813-9.257812 9.261719-9.257812zm0 0"/><path d="m15.875 12.15625c-2.199219 0-3.96875 1.769531-3.96875 3.96875s1.769531 3.96875 3.96875 3.96875 3.96875-1.769531 3.96875-3.96875-1.769531-3.96875-3.96875-3.96875zm0 1.324219c1.46875 0 2.648438 1.179687 2.648438 2.644531 0 1.46875-1.179688 2.648438-2.648438 2.648438-1.464844 0-2.644531-1.179688-2.644531-2.648438 0-1.464844 1.179687-2.644531 2.644531-2.644531zm0 0"/><path d="m5.292969 2.894531c-1.464844 0-2.648438 1.183594-2.648438 2.648438v21.167969c0 1.464843 1.183594 2.644531 2.648438 2.644531h21.167969c1.464843 0 2.644531-1.179688 2.644531-2.644531v-21.167969c0-1.464844-1.179688-2.648438-2.644531-2.648438zm1.320312 2.648438h18.523438c.734375 0 1.324219.589843 1.324219 1.324219v18.519531c0 .734375-.589844 1.324219-1.324219 1.324219h-18.523438c-.730469 0-1.320312-.589844-1.320312-1.324219v-18.519531c0-.734376.589843-1.324219 1.320312-1.324219zm0 0"/></g></svg>

<svg xmlns="http://www.w3.org/2000/svg" xmlns:xlink="http://www.w3.org/1999/xlink" width="32px" height="32px" viewBox="0 0 32 32" version="1.1">
<g id="surface1">
     <defs>
  <style id="current-color-scheme" type="text/css">
   .ColorScheme-Text { color:#eeeeee; } .ColorScheme-Highlight { color:#424242; }
  </style>
 </defs>
<path style="fill:currentColor" class="ColorScheme-Text" d="M 15.875 5.542969 C 10.011719 5.542969 5.292969 10.261719 5.292969 16.125 C 5.292969 21.992188 10.011719 26.710938 15.875 26.710938 C 21.742188 26.710938 26.460938 21.992188 26.460938 16.125 C 26.460938 10.261719 21.742188 5.542969 15.875 5.542969 Z M 15.875 6.867188 C 21.007812 6.867188 25.136719 10.996094 25.136719 16.125 C 25.136719 21.257812 21.007812 25.386719 15.875 25.386719 C 10.746094 25.386719 6.613281 21.257812 6.613281 16.125 C 6.613281 10.996094 10.746094 6.867188 15.875 6.867188 Z M 15.875 6.867188 "/>
     <defs>
  <style id="current-color-scheme" type="text/css">
   .ColorScheme-Text { color:#eeeeee; } .ColorScheme-Highlight { color:#424242; }
  </style>
 </defs>
<path style="fill:currentColor" class="ColorScheme-Text" d="M 15.875 12.15625 C 13.675781 12.15625 11.90625 13.925781 11.90625 16.125 C 11.90625 18.324219 13.675781 20.09375 15.875 20.09375 C 18.074219 20.09375 19.84375 18.324219 19.84375 16.125 C 19.84375 13.925781 18.074219 12.15625 15.875 12.15625 Z M 15.875 13.480469 C 17.34375 13.480469 18.523438 14.660156 18.523438 16.125 C 18.523438 17.59375 17.34375 18.773438 15.875 18.773438 C 14.410156 18.773438 13.230469 17.59375 13.230469 16.125 C 13.230469 14.660156 14.410156 13.480469 15.875 13.480469 Z M 15.875 13.480469 "/>
     <defs>
  <style id="current-color-scheme" type="text/css">
   .ColorScheme-Text { color:#eeeeee; } .ColorScheme-Highlight { color:#424242; }
  </style>
 </defs>
<path style="fill:currentColor" class="ColorScheme-Text" d="M 5.292969 2.894531 C 3.828125 2.894531 2.644531 4.078125 2.644531 5.542969 L 2.644531 26.710938 C 2.644531 28.175781 3.828125 29.355469 5.292969 29.355469 L 26.460938 29.355469 C 27.925781 29.355469 29.105469 28.175781 29.105469 26.710938 L 29.105469 5.542969 C 29.105469 4.078125 27.925781 2.894531 26.460938 2.894531 Z M 6.613281 5.542969 L 25.136719 5.542969 C 25.871094 5.542969 26.460938 6.132812 26.460938 6.867188 L 26.460938 25.386719 C 26.460938 26.121094 25.871094 26.710938 25.136719 26.710938 L 6.613281 26.710938 C 5.882812 26.710938 5.292969 26.121094 5.292969 25.386719 L 5.292969 6.867188 C 5.292969 6.132812 5.882812 5.542969 6.613281 5.542969 Z M 6.613281 5.542969 "/>
</g>
</svg>
